X:1104
T:Gramachree is a Sup of good Drink.
M:12/8
L:1/8
Q:3/8=104
Z:Jack Campin * www.campin.me.uk * 2009
K:D Dorian
A|d2e f2d e^cA A2A|d2e f2g afd d2f/g/|agf gfe fed cBA|G2A B2G AFD D2:|
F|FGF F2f f2d  cAF|G2A B2G AFD D2F   |FGF F2f f2d cAF|G2A B2G AFD D2:|
<end>
<start>
